home-plus-outline.svg

<svg  viewBox="0 0 24 24" fill="currentColor"><path  d="M17 14H19V17H22V19H19V22H17V19H14V17H17V14M5 20V12H2L12 3L22 12H17V10.19L12 5.69L7 10.19V18H12C12 18.7 12.12 19.37 12.34 20H5Z"/></svg>

<svg fill="currentColor" viewBox="0 0 24 24"><path d="M17 14h2v3h3v2h-3v3h-2v-3h-3v-2h3zM5 20v-8H2l10-9 10 9h-5v-1.81l-5-4.5-5 4.5V18h5c0 .7.12 1.37.34 2z"/></svg>
